X: 1
T: Hooded Cloak, The
M: 4/4
L: 1/8
R: hornpipe
K: Dmaj
|:FG| A2 AB AGFD| G2 gf gefg| a2 ab agec|dcAF G2 FG|
A2 AB AGFD| G2 gf gefg |a2 ab agec| e2 dc d2 :|
|:cd|e2 ef g2 fg|abaf gefg | a2 ab agec|dcAF G2 cd|
e2 ef g2 fg|abaf gefg | a2 ab agec| e2 dc d2 :|
